X:1
T:Inno alla Gioia
T:dalla Nona Sinfonia
T:Beethoven
T:Inno alla Gioia
C:Beethoven
%%score { 1 | 2 }
L:1/8
M:4/4
K:C
V:1 treble nm="Piano" snm="Pno."
V:2 bass 
V:1
!f!"^Moderato" E2 E2 F2 G2 | G2 F2 E2 D2 | C2 C2 D2 E2 | E3 D D4 | E2 E2 F2 G2 | G2 F2 E2 D2 | %6
 C2 C2 D2 E2 | D3 C C4 |!p! D2 D2 E2 C2 | D2 EF E2 C2 |!<(! D2 EF E2 D2!<)! | C2 D2 z4 | %12
!f! E2 E2 F2 G2 | G2 F2 E2 D2 | C2 C2 D2 E2 | D3 C C4 |!p! D2 D2 E2 C2 | D2 EF E2 C2 | %18
!<(! D2 EF E2 D2!<)! | C2 D2 z4 |!f! E2 E2 F2 G2 | G2 F2 E2 D2 | C2 C2 D2 E2 | D3 C C4 | %24
 (G2 E2 D2 C2) | z8 | (C2 C2 D2 E2 | D3 C C4) |] %28
V:2
 ([C,E,G,]8 | [C,E,G,]6) z2 | [C,E,G,]6 z2 | G,8 | ([C,E,G,]8 | [C,E,G,]6) z2 | [C,E,G,]6 z2 | %7
 G,4 [C,E,]4 | G,6 z2 | G,6 z2 | F,6 z2 | z4 G,4 | ([C,E,G,]8 | [C,E,G,]6) z2 | [C,E,G,]6 z2 | %15
 G,4 [C,E,]4 | G,6 z2 | G,6 z2 | F,6 z2 | z4 G,4 | ([C,E,G,]8 | [C,E,G,]6) z2 | [C,E,G,]6 z2 | %23
 G,4 [C,E,]4 | z8 | (G,2 E,2 D,2 C,2) | z8 | G,4 [C,E,]4 |] %28

